icons/prelude-filled.svg

<svg width="256" height="256" viewBox="0 0 256 256" fill="none" xmlns="http://www.w3.org/2000/svg">
<path d="M196 0H60C26.8629 0 0 26.8629 0 60V196C0 229.137 26.8629 256 60 256H196C229.137 256 256 229.137 256 196V60C256 26.8629 229.137 0 196 0Z" fill="#00005B"/>
<path d="M70 182.9V80C70 79.3 70.3 78.9 71 78.9C72.7 78.9 74.8 78.9 77.1 78.8C79.4 78.7 82 78.7 84.7 78.6C87.4 78.5 90.3 78.5 93.4 78.4C96.5 78.3 99.5 78.3 102.5 78.3C110.7 78.3 117.5 79.3 123.1 81.4C128.12 83.1048 132.697 85.9059 136.5 89.6001C139.722 92.8329 142.212 96.7207 143.8 101C145.314 105.167 146.092 109.566 146.1 114C146.1 122.6 144.1 129.7 140.1 135.3C136.081 140.892 130.471 145.144 124 147.5C116.788 150.102 109.167 151.389 101.5 151.3C99.1 151.3 97.5 151.3 96.5 151.2C95.5 151.1 94.1 151.1 92.2 151.1V182.8C92.2223 182.965 92.2114 183.132 92.1678 183.292C92.1242 183.452 92.0489 183.602 91.9463 183.733C91.8437 183.863 91.7159 183.972 91.5705 184.052C91.4252 184.133 91.2652 184.183 91.1 184.2H71.1C70.3 184.2 70 183.8 70 182.9ZM92.2 98.2001V131.5C93.6 131.6 94.9 131.7 96.1 131.7H101.4C105.293 131.772 109.174 131.232 112.9 130.1C116.088 129.163 118.936 127.322 121.1 124.8C123.2 122.3 124.2 118.9 124.2 114.5C124.294 111.375 123.496 108.288 121.9 105.6C120.233 103.004 117.78 101.007 114.9 99.9C111.146 98.4297 107.129 97.7489 103.1 97.9C100.5 97.9 98.2 97.9 96.3 98C94.9305 97.9803 93.5611 98.0471 92.2 98.2001Z" fill="#9999FF"/>
<path d="M155.1 163.4V71.3C155.1 70.4 155.6 70 156.5 70H176C177 70 177.4 70.4 177.4 71.3V161.5C177.4 163.8 177.8 165.4 178.6 166.3C179.4 167.3 180.8 167.7 182.7 167.7C183.169 167.72 183.639 167.687 184.1 167.6C184.4 167.5 184.9 167.5 185.5 167.4C185.673 167.384 185.847 167.419 186 167.5C186.174 167.803 186.244 168.154 186.2 168.5V182.3C186.217 182.736 186.183 183.172 186.1 183.6C185.939 183.871 185.693 184.082 185.4 184.2C184.106 184.674 182.765 185.009 181.4 185.2C179.379 185.482 177.34 185.616 175.3 185.6C171.741 185.668 168.205 185.022 164.9 183.7C161.752 182.386 159.191 179.968 157.7 176.9C156 173.9 155.1 169.3 155.1 163.4Z" fill="#9999FF"/>
</svg>

<svg xmlns="http://www.w3.org/2000/svg" width="256" height="256" fill="none"><path fill="#00005B" d="M196 0H60C26.863 0 0 26.863 0 60v136c0 33.137 26.863 60 60 60h136c33.137 0 60-26.863 60-60V60c0-33.137-26.863-60-60-60"/><path fill="#99F" d="M70 182.9V80c0-.7.3-1.1 1-1.1 1.7 0 3.8 0 6.1-.1s4.9-.1 7.6-.2 5.6-.1 8.7-.2 6.1-.1 9.1-.1c8.2 0 15 1 20.6 3.1a35.7 35.7 0 0 1 13.4 8.2 31.8 31.8 0 0 1 7.3 11.4 38.3 38.3 0 0 1 2.3 13q0 12.9-6 21.3a34.26 34.26 0 0 1-16.1 12.2 64.1 64.1 0 0 1-22.5 3.8c-2.4 0-4 0-5-.1s-2.4-.1-4.3-.1v31.7a1.24 1.24 0 0 1-1.1 1.4h-20c-.8 0-1.1-.4-1.1-1.3m22.2-84.7v33.3c1.4.1 2.7.2 3.9.2h5.3a37.2 37.2 0 0 0 11.5-1.6 17.2 17.2 0 0 0 8.2-5.3c2.1-2.5 3.1-5.9 3.1-10.3a16.46 16.46 0 0 0-2.3-8.9 14.5 14.5 0 0 0-7-5.7 29.3 29.3 0 0 0-11.8-2c-2.6 0-4.9 0-6.8.1q-2.057-.03-4.1.2m62.9 65.2V71.3c0-.9.5-1.3 1.4-1.3H176c1 0 1.4.4 1.4 1.3v90.2q0 3.45 1.2 4.8c.8 1 2.2 1.4 4.1 1.4a6 6 0 0 0 1.4-.1c.3-.1.8-.1 1.4-.2a.9.9 0 0 1 .5.1c.174.303.244.654.2 1v13.8q.025.656-.1 1.3a1.44 1.44 0 0 1-.7.6 19.5 19.5 0 0 1-4 1c-2.021.282-4.06.416-6.1.4a26.6 26.6 0 0 1-10.4-1.9 14 14 0 0 1-7.2-6.8c-1.7-3-2.6-7.6-2.6-13.5"/></svg>
